X: 22
T:The Doon
M:4/4
L:1/8
F:http://blackrosetheband.googlepages.com/ABCTUNES.ABC May 2009
K:D
|:"D drone"DFAF BFAF|DFAF GFEF|DFAF BAFA|1 (3Bcd ec dBAF:|2 (3Bcd ec d2AB|
|d2 fd Adfd|ddfd BAFA|dd (3ddd Adfg|afed BAFA|Adfd Adfd|Adfd edef|gfec dcBA|(3Bcd ec dBAF||
